assets/Magnifying glass tilted right/Flat/magnifying_glass_tilted_right_flat.svg

<svg width="32" height="32" viewBox="0 0 32 32" fill="none" xmlns="http://www.w3.org/2000/svg">
<path d="M29 13C29 18.5228 24.5228 23 19 23C13.4772 23 9 18.5228 9 13C9 7.47715 13.4772 3 19 3C24.5228 3 29 7.47715 29 13Z" fill="#00A6ED"/>
<path d="M24.3481 7.73205C24.9004 8.68864 24.7665 9.79989 24.049 10.2141C23.3316 10.6283 22.3023 10.1886 21.75 9.23205C21.1977 8.27547 21.3316 7.16421 22.049 6.75C22.7665 6.33579 23.7958 6.77547 24.3481 7.73205Z" fill="white"/>
<path d="M30 13C30 19.0751 25.0752 24 19 24C16.7048 24 14.5738 23.2971 12.8106 22.0947C13.0854 23.3086 12.7502 24.6327 11.8051 25.5779L8.62309 28.7599C7.15862 30.2243 4.78425 30.2243 3.31979 28.7599C1.85532 27.2954 1.85532 24.921 3.31979 23.4566L6.50177 20.2746C7.43928 19.3371 8.7497 18.9997 9.95558 19.2626C8.72259 17.4852 8.00003 15.327 8.00003 13C8.00003 6.92487 12.9249 2 19 2C25.0752 2 30 6.92487 30 13ZM28 13C28 8.02944 23.9706 4 19 4C14.0295 4 10 8.02944 10 13C10 17.9706 14.0295 22 19 22C23.9706 22 28 17.9706 28 13Z" fill="#533566"/>
</svg>

<svg xmlns="http://www.w3.org/2000/svg" width="32" height="32" fill="none"><path fill="#00A6ED" d="M29 13c0 5.523-4.477 10-10 10S9 18.523 9 13 13.477 3 19 3s10 4.477 10 10Z"/><path fill="#fff" d="M24.348 7.732c.552.957.419 2.068-.299 2.482-.717.414-1.747-.025-2.299-.982-.552-.957-.418-2.068.299-2.482.718-.414 1.747.025 2.3.982Z"/><path fill="#533566" d="M30 13c0 6.075-4.925 11-11 11-2.295 0-4.426-.703-6.19-1.905a3.748 3.748 0 0 1-1.005 3.483L8.623 28.76a3.75 3.75 0 0 1-5.303-5.303l3.182-3.182a3.747 3.747 0 0 1 3.454-1.012A10.95 10.95 0 0 1 8 13C8 6.925 12.925 2 19 2s11 4.925 11 11Zm-2 0a9 9 0 1 0-18 0 9 9 0 0 0 18 0Z"/></svg>
